X:2020
T:Brighton Camp
T:The Girl I Left Behind Me
R:March
C:Trad.
O:England
Z:Paul Hardy's Session Tunebook 2015 (see www.paulhardy.net). Creative Commons cc by-nc-sa licenced.
M:4/4
L:1/4
Q:1/4=180
K:G
g/f/|"G"ed/c/ BA|"C"BG E>D|"G"GG G/A/B/c/|"D7"d2 Bg/f/|"G"ed/c/ BA|"C"BG E>G|"D7"F/G/A/F/ DE/F/|"G"G2 G:|
|:d/c/|"G"Bd "D7"ef|"G"gd "D7"B/A/G|"G"B/c/d "Em"ef|"C"g2 "D7"fg/f/|"G"ed/c/ BA|"C"BG E>G|"D7"F/G/A/F/ DE/F/|"G"G2 G:|

